build/img/daichi-logo-white-short.svg

<svg width="64" height="64" viewBox="0 0 64 64" fill="none" xmlns="http://www.w3.org/2000/svg">
<path fill-rule="evenodd" clip-rule="evenodd" d="M9.43663 15.4606C5.77865 17.3084 4 20.3538 4 24.8363C4 28.0527 4.83899 30.3111 6.81899 32.2957C8.69832 34.2461 10.5105 35.0331 13.4302 35.2042C17.0882 35.4095 19.0682 34.691 21.4845 32.2273C23.6658 30.0031 24.4713 27.9843 24.4713 24.8363C24.4713 21.962 23.6994 19.8747 21.8536 17.7874C19.6723 15.2896 17.6587 14.3999 14.2021 14.3999C11.8529 14.3999 11.2153 14.5368 9.43663 15.4606ZM17.1889 22.27C18.2292 23.4676 18.397 25.1442 17.5916 26.7183C16.8868 28.1212 15.8129 28.7713 14.2021 28.7713C11.4838 28.7713 9.50375 25.9655 10.477 23.5702C11.7522 20.5249 15.0411 19.8747 17.1889 22.27Z" fill="white"/>
<path fill-rule="evenodd" clip-rule="evenodd" d="M30.5119 49.3703V14.6736L39.0025 14.8105C46.654 14.9473 47.6608 15.05 49.473 15.7343C56.4869 18.3349 60.8161 24.5283 60.8161 32.0219C60.8161 39.6183 56.4534 45.7774 49.3052 48.3095C47.3252 49.0281 46.3855 49.0965 38.8347 49.2334L30.5119 49.3703ZM52.9967 28.258C51.99 25.4864 49.4059 22.8858 46.9225 22.133C45.7815 21.7909 43.835 21.5856 41.5194 21.5856H37.895V42.5268L42.1906 42.3899C46.0164 42.2872 46.6205 42.1846 48.1642 41.3634C52.6947 38.9681 54.809 33.2196 52.9967 28.258Z" fill="white"/>
</svg>

<svg width="64" height="64" viewBox="0 0 64 64" fill="none" xmlns="http://www.w3.org/2000/svg"><path fill-rule="evenodd" clip-rule="evenodd" d="M9.437 15.46C5.779 17.309 4 20.355 4 24.837c0 3.217.839 5.475 2.819 7.46 1.88 1.95 3.692 2.737 6.611 2.908 3.658.206 5.638-.513 8.055-2.977 2.18-2.224 2.986-4.243 2.986-7.39 0-2.875-.772-4.962-2.617-7.05-2.182-2.497-4.195-3.387-7.652-3.387-2.35 0-2.987.137-4.765 1.06zm7.752 6.81c1.04 1.198 1.208 2.874.403 4.448-.705 1.403-1.78 2.053-3.39 2.053-2.718 0-4.698-2.806-3.725-5.2 1.275-3.046 4.564-3.696 6.712-1.301zm13.323 27.1V14.674l8.49.136c7.652.137 8.659.24 10.471.924 7.014 2.6 11.343 8.794 11.343 16.288 0 7.596-4.363 13.755-11.51 16.288-1.98.718-2.92.786-10.471.923l-8.323.137zm22.485-21.112c-1.007-2.772-3.591-5.372-6.075-6.125-1.14-.342-3.087-.547-5.403-.547h-3.624v20.94l4.296-.136c3.825-.103 4.43-.205 5.973-1.027 4.53-2.395 6.645-8.143 4.833-13.105z" fill="#fff"/></svg>
